X:1
T:"Night Train"
T:"Night Train"
T:from Einstein on the Beach
T: P hilip Glass arr. Bradley Pittman 
T: Solo Piano 
C:Philip Glass
%%score { ( 1 4 ) | ( 2 3 ) }
L:1/8
Q:1/4=165
M:3/8
K:Eb
V:1 treble nm="Piano" snm="Pno."
V:4 treble 
V:2 bass 
V:3 bass 
V:1
|:"^1""^x8" z3 ::[M:8/8]"^2""^x8" z8 ::"^3""^x16" (A2 B2 c2 B2) :: %3
[M:24/8]"^4""^x4" (A2 B2 c2) (A2 B2 c2) (A2 B2 c2) (A2 B2 c2) :: %4
[M:8/8]"^x16""^5" (A2 B2) (A2 B2) ::[M:24/8]"^6""^x4" (AFAB cB)(AF ABcB) (AFAB cB)(AF ABcB) :: %6
[M:6/8]"^7""^x8" (AFA BcB) ::"^8""^x4""^x4""^x4" z6 ::[M:8/8]"^9""^x4" z8 :: %9
[M:24/8]"^10""^x4" (A2 B2 c2) (A2 B2 c2) (A2 B2 c2) (A2 B2 c2) :: %10
[M:8/8]"^11""^x16" (A2 B2 c2 e2) :: %11
[M:40/8]"^12""^x4" (A2 B2 c2 e2) (A2 B2 c2) (A2 B2 c2) (A2 B2 c2 e2) (A2 B2 c2) (A2 B2 c2) :: %12
"^13""^x4" (A2 B2 c2 e2 e2) (A2 B2 c2 e2 e2) (A2 B2 c2 e2 e2) (A2 B2 c2 e2 e2) :: %13
[M:24/8]"^14""^x4" (f2 e2 B2) (f2 e2 B2) (f2 e2 B2) (f2 e2 B2) :: %14
[M:24/8]"^15""^x4" (AFAB cB)(AF ABcB) (AFAB cB)(AF ABcB) ::[M:6/8]"^x8""^16" (AFA BcB) :: %16
"^17""^x4""^x4""^x4" z6 ::[M:8/8]"^18" z8 ::"^19""^x16" (f2 e2) (f2 e2) :: %19
[M:24/8]"^20""^x4" fff eee fff eee fff eee fff eee ::[M:8/8]"^21""^x4" (f2 e2) (f2 e2) | %21
[M:8/8] (f2 e2) (f2 e2) | (f2 e2) (f2 e2) | (f2 e2) (f2 e2) | fffe eeff | feee fffe | eeff feee :: %27
[M:24/8]"^22""^x4" ([Ff]2 [Be]2 B2) ([Ff]2 [Be]2 B2) ([Ff]2 [Be]2 B2) ([Ff]2 [Be]2 B2) :: %28
[M:8/8]"^23""^x16" f2 e4 B2 ::[M:24/8]"^24""^x4" (AFAB cB)(AF ABcB) (AFAB cB)(AF ABcB) :: %30
"^25""^x4" (AFAB cBAF) (AFAB cBAF) (AFAB cBAF) |[M:24/8] (AFAB cB)(AF ABcB) (AFAB cB)(AF ABcB) :: %32
[M:6/8]"^26""^x8" (AFA BcB) ::"^27""^x4" z6 ::[M:8/8][K:bass]"^28""^x8" F,,4 E,,4 :: %35
[K:treble]"^29""^x8" (BA)(BA) (BA)(BA) ::[M:24/8]"^30""^x4" BBB AAA BBB AAA BBB AAA BBB AAA :: %37
[M:8/8]"^31""^x4" (BA)(BA) (BA)(BA) | (BA)(BA) (BA)(BA) | BBBA AABB | BAAA BBBA | AABB BAAA :: %42
"^32" (BA)(BA) (BA)(BA) | (BA)(BA) (BA)(BA) | (BA)(BA) (BA)(BA) | (BA)(BA) (BA)(BA) | %46
"^x2" BBBA AABB | BAAA BBBA | AABB BAAA | BBBA AABB | BAAA BBBA | AABB BAAA :: %52
"^33""^x8" BABc BABc ::"^34""^x8" FABc FABc :: %54
[M:40/8]"^35""^x2" (FABc [Be])(FAB c[Be])(FA Bc[Be])(F ABc[Be]) (FABc [Be])(FAB c[Be])(FA Bc[Be])(F ABc[Be]) :: %55
[M:24/8]"^36""^x4" (FABc [Be][Af])(FA Bc[Be][Af]) (FABc [Be][Af])(FA Bc[Be][Af]) :: %56
[M:40/8]"^37""^x4" (FABc efec BA)(FA Bcef ecBA) (FABc efec BA)(FA Bcef ecBA) :: %57
[M:8/8]"^38""^x8" (FABc efec) :: %58
[M:24/8]"^39""^x4" (FABc [Be][Af])(FA Bc[Be][Af]) (FABc [Be][Af])(FA Bc[Be][Af]) :: %59
[M:40/8]"^40""^x2" (FABc [Be])(FAB c[Be])(FA Bc[Be])(F ABc[Be]) (FABc [Be])(FAB c[Be])(FA Bc[Be])(F ABc[Be]) :: %60
[M:8/8]"^41""^x8" (FABc) (FABc) ::[M:24/8]"^42""^x4" z AB z AB z AB z AB z AB z AB z AB z AB :: %62
[M:24/8]"^43""^x4" (AFAB cB)(AF ABcB) (AFAB cB)(AF ABcB) :: %63
"^44""^x4" (AFAB cBAF) (AFAB cBAF) (AFAB cBAF) | (AFAB cB)(AF ABcB) (AFAB cB)(AF ABcB) :: %65
[M:6/8]"^45""^x4" (AFA BcB) | (AFA BcB) | (AFA BcB) | (AFA BcB) | (AFA BcB | AF)(A FAB | %71
 cBA F)(AF | ABc BAF) ::"^46""^x8" (AFA BcB) ::"^47""^x4""^x4" z6 ::[M:8/8]"^48""^x4" z8 :: %76
[M:9/8]"^48a""^x4" z9 ::[M:8/8]"^49""^x4" z8 ::[M:2/8]"^50""^x16" z2 :: %79
[M:8/8][K:bass]"^51""^x4" F,,4 E,,4 ::[K:treble]"^52""^x4" fefe fefe :: %81
[M:24/8]"^x4""^53" [ef][ef][ef] [Be][Be][Be] [ef][ef][ef] [Be][Be][Be] [ef][ef][ef] [Be][Be][Be] [ef][ef][ef] [Be][Be][Be] :: %82
[M:8/8]"^54""^x4" [ef]e[ef]e [ef]e[ef]e |[M:8/8] [ef]e[ef]e [ef]e[ef]e | %84
[M:24/8] [ef][ef][ef] [Be][Be][Be] [ef][ef][ef] [Be][Be][Be] [ef][ef][ef] [Be][Be][Be] [ef][ef][ef] [Be][Be][Be] :: %85
[M:8/8]"^55""^x4" [ef]e[ef]e [ef]e[ef]e :: %86
[M:24/8]"^56""^x4" ([cf][Be][FB]) ([cf][Be][FB]) ([cf][Be][FB]) ([cf][Be][FB]) ([cf][Be][FB]) ([cf][Be][FB]) ([cf][Be][FB]) ([cf][Be][FB]) :: %87
[M:8/8]"^57""^x8" ([cf][Be][FB]A) ([cf][Be][FB]A) :: %88
[M:24/8]"^58""^x4" ([cf][Be][FB]) (A[FB][Be]) ([cf][Be][FB]) ([EA][FB][Be]) ([cf][Be][FB]) (A[FB][Be]) ([cf][Be][FB]) ([EA][FB][Be]) :: %89
[M:8/8]"^59""^x8" ([cf][Be][Ac][FB]) ([EA][FB][Ac][Be]) :: %90
[M:40/8]"^60""^x4" ([cf][Be][Ac][FB] [EA][CF][EA][FB] [Ac][Be])([cf][Be] [Ac][FB][EA][CF] [EA][FB][Ac][Be]) ([cf][Be][Ac][FB] [EA][CF][EA][FB] [Ac][Be])([cf][Be] [Ac][FB][EA][CF] [EA][FB][Ac][Be]) :: %91
[M:24/8]"^61""^x4" ([CF][EA][FB][Ac] [Be][cf])(FA [FB][Ac][Be][cf]) ([CF][EA][FB][Ac] [Be][cf])(FA [FB][Ac][Be][cf]) :: %92
[M:40/8]"^62""^x2" ([CF][EA][FB][Ac] [Be])([CF][EA][FB] [Ac][Be])(F[EA] [FB][Ac][Be])([CF] [EA][FB][Ac][Be]) ([CF][EA][FB][Ac] [Be])([CF][EA][FB] [Ac][Be])(FA [FB][Ac][Be])([CF] [EA][FB][Ac][Be]) :: %93
[M:8/8]"^63""^x8" [CF][EA][FB][Ac] [CF][EA][FB][Ac] :: %94
[M:24/8]"^64""^x2" z AB z AB z AB z AB z AB z AB z AB z AB | %95
 z AB z AB z AB z AB z AB z AB z AB z AB :: %96
[M:24/8]"^65""^x4" (AFAB cB)(AF ABcB) (AFAB cB)(AF ABcB) ::[M:8/8]"^66""^x4" (AFAB cBAF) | %98
 (AFAB cBAF) | (AFAB cBAF) |[M:24/8] (AFAB cB)(AF ABcB) (AFAB cB)(AF ABcB) :: %101
[M:6/8]"^67""^x8" (AFA BcB) ::[M:24/8]"^68" (AFAB cBAF)"^x4" (AFAB cBAF) (AFAB cBAF) | %103
[M:6/8] (AFA BcB) | (AFA BcB) | (AFA BcB) | (AFA BcB) ::[M:6/8]"^69"[Q:1/4=300]"^x8" eAF EFA :: %108
[M:8/8]"^70""^x8" eAeA FEFA |[M:6/8] eAF EFA ::[M:4/4]"^71""^x8" eAeA FEFA | eAFE FEFA :: %112
[M:5/4]"^72""^x8" eA eA FE FE FA |[M:6/8] eAF EFA ::[M:7/8]"^73""^x8" eAe Ae AF |[M:5/8] EF EFA | %116
[M:6/8] eAF EFA ::[M:4/4]"^74""^x8" eAeA FEFA | eAFE FEFA ::[M:5/4]"^75""^x8" eA eA FE FE FA | %120
[M:6/8] eAF EFA ::[M:5/4]"^76""^x8" eAeAFE FEFA ::[M:6/8]"^77""^x16" eAF EFA :| %123
V:2
|: ([A,B,]CE) ::[M:8/8] F,4 E,4 :: F,4 E,4 ::[M:24/8] F,4 E,4 F,4 E,4 F,4 E,4 ::[M:8/8] F,4 E,4 :: %5
[M:24/8] F,4 E,4 F,4 E,4 F,4 E,4 ::[M:6/8] ([A,B,]CE) ([A,B,]CE) ::"^x4" ([A,B,]CE) ([A,B,]CE) :: %8
[M:8/8] F,4 E,4 ::[M:24/8] F,4 E,4 F,4 E,4 F,4 E,4 ::[M:8/8] F,4 E,4 :: %11
[M:40/8] F,4 E,4 F,4 E,4 F,4 E,4 F,4 E,4 F,4 E,4 :: F,4 E,4 F,4 E,4 F,4 E,4 F,4 E,4 F,4 E,4 :: %13
[M:24/8] F,4 E,4 F,4 E,4 F,4 E,4 ::[M:24/8] F,4 E,4 F,4 E,4 F,4 E,4 :: %15
[M:6/8] ([A,B,]CE) ([A,B,]CE) ::"^x4" ([A,B,]CE) ([A,B,]CE) ::[M:8/8] F,4 E,4 :: F,4 E,4 :: %19
[M:24/8] F,4 E,4 F,4 E,4 F,4 E,4 ::[M:8/8] F,4 E,4 |[M:8/8] F,4 E,4 | F,4 E,4 | F,4 E,4 | F,4 E,4 | %25
 F,4 E,4 | F,4 E,4 ::[M:24/8] F,4 E,4 F,4 E,4 F,4 E,4 ::[M:8/8] F,4 E,4 :: %29
[M:24/8] F,4 E,4 F,4 E,4 F,4 E,4 :: F,4 E,4 F,4 E,4 F,4 E,4 |[M:24/8] F,4 E,4 F,4 E,4 F,4 E,4 :: %32
[M:6/8] ([A,B,]CE) ([A,B,]CE) ::"^x4" ([A,B,]CE) ([A,B,]CE) ::[M:8/8] F,4 E,4 :: F,4 E,4 :: %36
[M:24/8] F,4 E,4 F,4 E,4 F,4 E,4 ::[M:8/8] F,4 E,4 | F,4 E,4 | F,4 E,4 | F,4 E,4 | F,4 E,4 :: %42
 F,4 E,4 | F,4 E,4 | F,4 E,4 | F,4 E,4 | F,4 E,4 | F,4 E,4 | F,4 E,4 | F,4 E,4 | F,4 E,4 | %51
 F,4 E,4 :: F,4 E,4 :: F,4 E,4 ::[M:40/8] F,4 E,4 F,4 E,4 F,4 E,4 F,4 E,4 F,4 E,4 :: %55
[M:24/8] F,4 E,4 F,4 E,4 F,4 E,4 ::[M:40/8] F,4 E,4 F,4 E,4 F,4 E,4 F,4 E,4 F,4 E,4 :: %57
[M:8/8] F,4 E,4 ::[M:24/8] F,4 E,4 F,4 E,4 F,4 E,4 :: %59
[M:40/8] F,4 E,4 F,4 E,4 F,4 E,4 F,4 E,4 F,4 E,4 ::[M:8/8] F,4 E,4 :: %61
[M:24/8] F,4 E,4 F,4 E,4 F,4 E,4 ::[M:24/8] F,4 E,4 F,4 E,4 F,4 E,4 :: F,4 E,4 F,4 E,4 F,4 E,4 | %64
 F,4 E,4 F,4 E,4 F,4 E,4 ::[M:6/8] ([A,B,]CE) ([A,B,]CE) | ([A,B,]CE) ([A,B,]CE) | %67
 ([A,B,]CE) ([A,B,]CE) | ([A,B,]CE) ([A,B,]CE) | ([A,B,]CE) ([A,B,]CE) | ([A,B,]CE) ([A,B,]CE) | %71
 ([A,B,]CE) ([A,B,]CE) | ([A,B,]CE) ([A,B,]CE) :: ([A,B,]CE) ([A,B,]CE) :: ([A,B,]CE) ([A,B,]CE) :: %75
[M:8/8] (F,[A,B,]CE) (E,[A,B,]CE) ::[M:9/8] (F,[A,B,]CE) ([A,B,]CE) ([A,B,]C) :: %77
[M:8/8] (F,[A,B,]CE) ([A,B,]C)([A,B,]C) ::[M:2/8] ([A,B,]C) ::[M:8/8] F,4 E,4 :: F,4 E,4 :: %81
[M:24/8] F,4 E,4 F,4 E,4 F,4 E,4 ::[M:8/8] F,4 E,4 |[M:8/8] F,4 E,4 | %84
[M:24/8] F,4 E,4 F,4 E,4 F,4 E,4 ::[M:8/8] F,4 E,4 ::[M:24/8] F,4 E,4 F,4 E,4 F,4 E,4 :: %87
[M:8/8] F,4 E,4 ::[M:24/8] F,4 E,4 F,4 E,4 F,4 E,4 ::[M:8/8] F,4 E,4 :: %90
[M:40/8] F,4 E,4 F,4 E,4 F,4 E,4 F,4 E,4 F,4 E,4 ::[M:24/8] F,4 E,4 F,4 E,4 F,4 E,4 :: %92
[M:40/8] F,4 E,4 F,4 E,4 F,4 E,4 F,4 E,4 F,4 E,4 ::[M:8/8] F,4 E,4 :: %94
[M:24/8] F,4 E,4 F,4 E,4 F,4 E,4 | F,4 E,4 F,4 E,4 F,4 E,4 ::[M:24/8] F,4 E,4 F,4 E,4 F,4 E,4 :: %97
[M:8/8] F,4 E,4 | F,4 E,4 | F,4 E,4 |[M:24/8] F,4 E,4 F,4 E,4 F,4 E,4 :: %101
[M:6/8] ([A,B,]CE) ([A,B,]CE) :: %102
[M:24/8] ([A,B,]CE)([A,B,] CE)([A,B,]C E)([A,B,]CE) ([A,B,]CE)([A,B,] CE)([A,B,]C E)([A,B,]CE) | %103
[M:6/8] ([A,B,]CE) ([A,B,]CE) | ([A,B,]CE) ([A,B,]CE) | ([A,B,]CE) ([A,B,]CE) | %106
 ([A,B,]CE) ([A,B,]CE) ::[M:6/8] E,,B,,C, E,C,B,, ::[M:8/8] E,,B,,E,,B,, C,E,C,B,, | %109
[M:6/8] E,,B,,C, E,C,B,, ::[M:4/4] E,,B,,E,,B,, C,E,C,B,, | E,,B,,C,E, C,E,C,B,, :: %112
[M:5/4] E,,B,, E,,B,, C,E, C,E, C,B,, |[M:6/8] E,,B,,C, E,C,B,, ::[M:7/8] E,,B,,E,, B,,E,, B,,C, | %115
[M:5/8] E,C, E,C,B,, |[M:6/8] E,,B,,C, E,C,B,, ::[M:4/4] E,,B,,E,,B,, C,E,C,B,, | %118
 E,,B,,C,E, C,E,C,B,, ::[M:5/4] E,,B,, E,,B,, C,E, C,E, C,B,, |[M:6/8] E,,B,,C, E,C,B,, :: %121
[M:5/4] E,,B,,E,,B,,C,E, C,E,C,B,, ::[M:6/8] E,,B,,C, E,C,B,, :| %123
V:3
|: x3 ::[M:8/8] z [A,B,]CE z [A,B,]CE :: z [A,B,]CE z [A,B,]CE :: %3
[M:24/8] z [A,B,]CE z [A,B,]CE z [A,B,]CE z [A,B,]CE z [A,B,]CE z [A,B,]CE :: %4
[M:8/8] z [A,B,]CE z [A,B,]CE :: %5
[M:24/8] z [A,B,]CE z [A,B,]CE z [A,B,]CE z [A,B,]CE z [A,B,]CE z [A,B,]CE ::[M:6/8] x6 :: x6 :: %8
[M:8/8] z [A,B,]CE z [A,B,]CE :: %9
[M:24/8] z [A,B,]CE z [A,B,]CE z [A,B,]CE z [A,B,]CE z [A,B,]CE z [A,B,]CE :: %10
[M:8/8] z [A,B,]CE z [A,B,]CE :: %11
[M:40/8] z [A,B,]CE z [A,B,]CE z [A,B,]CE z [A,B,]CE z [A,B,]CE z [A,B,]CE z [A,B,]CE z [A,B,]CE z [A,B,]CE z [A,B,]CE :: %12
 z [A,B,]CE z [A,B,]CE z [A,B,]CE z [A,B,]CE z [A,B,]CE z [A,B,]CE z [A,B,]CE z [A,B,]CE z [A,B,]CE z [A,B,]CE :: %13
[M:24/8] z [A,B,]CE z [A,B,]CE z [A,B,]CE z [A,B,]CE z [A,B,]CE z [A,B,]CE :: %14
[M:24/8] z [A,B,]CE z [A,B,]CE z [A,B,]CE z [A,B,]CE z [A,B,]CE z [A,B,]CE ::[M:6/8] x6 :: x6 :: %17
[M:8/8] z [A,B,]CE z [A,B,]CE :: z [A,B,]CE z [A,B,]CE :: %19
[M:24/8] z [A,B,]C E z [A,B,] CE z [A,B,]CE z [A,B,]C E z [A,B,] CE z [A,B,]CE :: %20
[M:8/8] z [A,B,]CE z [A,B,]CE |[M:8/8] z [A,B,]CE z [A,B,]CE | z [A,B,]CE z [A,B,]CE | %23
 z [A,B,]CE z [A,B,]CE | z [A,B,]CE z [A,B,]CE | z [A,B,]CE z [A,B,]CE | z [A,B,]CE z [A,B,]CE :: %27
[M:24/8] z [A,B,]CE z [A,B,]CE z [A,B,]CE z [A,B,]CE z [A,B,]CE z [A,B,]CE :: %28
[M:8/8] z [A,B,]CE z [A,B,]CE :: %29
[M:24/8] z [A,B,]CE z [A,B,]CE z [A,B,]CE z [A,B,]CE z [A,B,]CE z [A,B,]CE :: %30
 z [A,B,]CE z [A,B,]CE z [A,B,]CE z [A,B,]CE z [A,B,]CE z [A,B,]CE | %31
[M:24/8] z [A,B,]CE z [A,B,]CE z [A,B,]CE z [A,B,]CE z [A,B,]CE z [A,B,]CE ::[M:6/8] x6 :: x6 :: %34
[M:8/8] z [A,B,]CE z [A,B,]CE :: z [A,B,]CE z [A,B,]CE :: %36
[M:24/8] z [A,B,]C E z [A,B,] CE z [A,B,]CE z [A,B,]C E z [A,B,] CE z [A,B,]CE :: %37
[M:8/8] z [A,B,]CE z [A,B,]CE | z [A,B,]CE z [A,B,]CE | z [A,B,]CE z [A,B,]CE | %40
 z [A,B,]CE z [A,B,]CE | z [A,B,]CE z [A,B,]CE :: z [A,B,]CE z [A,B,]CE | z [A,B,]CE z [A,B,]CE | %44
 z [A,B,]CE z [A,B,]CE | z [A,B,]CE z [A,B,]CE | z [A,B,]CE z [A,B,]CE | z [A,B,]CE z [A,B,]CE | %48
 z [A,B,]CE z [A,B,]CE | z [A,B,]CE z [A,B,]CE | z [A,B,]CE z [A,B,]CE | z [A,B,]CE z [A,B,]CE :: %52
 z [A,B,]CE z [A,B,]CE :: z [A,B,]CE z [A,B,]CE :: %54
[M:40/8] z [A,B,]CE z [A,B,]CE z [A,B,]CE z [A,B,]CE z [A,B,]CE z [A,B,]CE z [A,B,]CE z [A,B,]CE z [A,B,]CE z [A,B,]CE :: %55
[M:24/8] z [A,B,]CE z [A,B,]CE z [A,B,]CE z [A,B,]CE z [A,B,]CE z [A,B,]CE :: %56
[M:40/8] z [A,B,]CE z [A,B,]CE z [A,B,]CE z [A,B,]CE z [A,B,]CE z [A,B,]CE z [A,B,]CE z [A,B,]CE z [A,B,]CE z [A,B,]CE :: %57
[M:8/8] z [A,B,]CE z [A,B,]CE :: %58
[M:24/8] z [A,B,]CE z [A,B,]CE z [A,B,]CE z [A,B,]CE z [A,B,]CE z [A,B,]CE :: %59
[M:40/8] z [A,B,]CE z [A,B,]CE z [A,B,]CE z [A,B,]CE z [A,B,]CE z [A,B,]CE z [A,B,]CE z [A,B,]CE z [A,B,]CE z [A,B,]CE :: %60
[M:8/8] z [A,B,]CE z [A,B,]CE :: %61
[M:24/8] z [A,B,]C E z [A,B,] CE z [A,B,]CE z [A,B,]C E z [A,B,] CE z [A,B,]CE :: %62
[M:24/8] z [A,B,]CE z [A,B,]CE z [A,B,]CE z [A,B,]CE z [A,B,]CE z [A,B,]CE :: %63
 z [A,B,]CE z [A,B,]CE z [A,B,]CE z [A,B,]CE z [A,B,]CE z [A,B,]CE | %64
 z [A,B,]CE z [A,B,]CE z [A,B,]CE z [A,B,]CE z [A,B,]CE z [A,B,]CE ::[M:6/8] x6 | x6 | x6 | x6 | %69
 x6 | x6 | x6 | x6 :: x6 :: x6 ::[M:8/8] x8 ::[M:9/8] x9 ::[M:8/8] x8 ::[M:2/8] x2 :: %79
[M:8/8] z [A,B,]CE z [A,B,]CE :: z [A,B,]CE z [A,B,]CE :: %81
[M:24/8] z [A,B,]C E z [A,B,] CE z [A,B,]CE z [A,B,]C E z [A,B,] CE z [A,B,]CE :: %82
[M:8/8] z [A,B,]CE z [A,B,]CE |[M:8/8] z [A,B,]CE z [A,B,]CE | %84
[M:24/8] z [A,B,]C E z [A,B,] CE z [A,B,]CE z [A,B,]C E z [A,B,] CE z [A,B,]CE :: %85
[M:8/8] z [A,B,]CE z [A,B,]CE :: %86
[M:24/8] z [A,B,]C E z [A,B,] CE z [A,B,]CE z [A,B,]C E z [A,B,] CE z [A,B,]CE :: %87
[M:8/8] z [A,B,]CE z [A,B,]CE :: %88
[M:24/8] z [A,B,]C E z [A,B,] CE z [A,B,]CE z [A,B,]C E z [A,B,] CE z [A,B,]CE :: %89
[M:8/8] z [A,B,]CE z [A,B,]CE :: %90
[M:40/8] z [A,B,]CE z [A,B,]CE z [A,B,]CE z [A,B,]CE z [A,B,]CE z [A,B,]CE z [A,B,]CE z [A,B,]CE z [A,B,]CE z [A,B,]CE :: %91
[M:24/8] z [A,B,]CE z [A,B,]CE z [A,B,]CE z [A,B,]CE z [A,B,]CE z [A,B,]CE :: %92
[M:40/8] z [A,B,]CE z [A,B,]CE z [A,B,]CE z [A,B,]CE z [A,B,]CE z [A,B,]CE z [A,B,]CE z [A,B,]CE z [A,B,]CE z [A,B,]CE :: %93
[M:8/8] z [A,B,]CE z [A,B,]CE :: %94
[M:24/8] z [A,B,]C E z [A,B,] CE z [A,B,]CE z [A,B,]C E z [A,B,] CE z [A,B,]CE | %95
 z [A,B,]C E z [A,B,] CE z [A,B,]CE z [A,B,]C E z [A,B,] CE z [A,B,]CE :: %96
[M:24/8] z [A,B,]CE z [A,B,]CE z [A,B,]CE z [A,B,]CE z [A,B,]CE z [A,B,]CE :: %97
[M:8/8] z [A,B,]CE z [A,B,]CE | z [A,B,]CE z [A,B,]CE | z [A,B,]CE z [A,B,]CE | %100
[M:24/8] z [A,B,]CE z [A,B,]CE z [A,B,]CE z [A,B,]CE z [A,B,]CE z [A,B,]CE ::[M:6/8] x6 :: %102
[M:24/8] x24 |[M:6/8] x6 | x6 | x6 | x6 ::[M:6/8] x6 ::[M:8/8] x8 |[M:6/8] x6 ::[M:4/4] x8 | x8 :: %112
[M:5/4] x10 |[M:6/8] x6 ::[M:7/8] x7 |[M:5/8] x5 |[M:6/8] x6 ::[M:4/4] x8 | x8 ::[M:5/4] x10 | %120
[M:6/8] x6 ::[M:5/4] x10 ::[M:6/8] x6 :| %123
V:4
|: x3 ::[M:8/8] x8 :: F8 ::[M:24/8] F6 F6 F6 F6 ::[M:8/8] F4 F4 ::[M:24/8] x24 ::[M:6/8] x6 :: %7
 x6 ::[M:8/8] x8 ::[M:24/8] F6 F6 F6 F6 ::[M:8/8] F6 F2 ::[M:40/8] F8 F6 F6 F8 F6 F6 :: %12
 F6 B2 B2 F6 B2 B2 F6 B2 B2 F6 B2 B2 ::[M:24/8] B4 F2 B4 F2 B4 F2 B4 F2 ::[M:24/8] x24 :: %15
[M:6/8] x6 :: x6 ::[M:8/8] x8 :: (F2 B2) (F2 B2) ::[M:24/8] FFF BBB FFF BBB FFF BBB FFF BBB :: %20
[M:8/8] (F2 B2) (F2 B2) |[M:8/8] (F2 B2) (F2 B2) | (F2 B2) (F2 B2) | (F2 B2) (F2 B2) | FFFB BBFF | %25
 FBBB FFFB | BBFF FBBB ::[M:24/8] x24 ::[M:8/8] F2 B4 x2 ::[M:24/8] x24 :: x24 |[M:24/8] x24 :: %32
[M:6/8] x6 :: x6 ::[M:8/8][K:bass] x8 ::[K:treble] F8 ::[M:24/8] FFF FFF FFF FFF FFF FFF FFF FFF :: %37
[M:8/8] F8 | F8 | FFFF FFFF | FFFF FFFF | FFFF FFFF :: F8 | F8 | F8 | F8 | FFFF FFFF | FFFF FFFF | %48
 FFFF FFFF | FFFF FFFF | FFFF FFFF | FFFF FFFF :: F8 :: x8 ::[M:40/8] x40 ::[M:24/8] x24 :: %56
[M:40/8] x40 ::[M:8/8] x8 ::[M:24/8] x24 ::[M:40/8] x40 ::[M:8/8] x8 :: %61
[M:24/8] F3 F3 F3 F3 F3 F3 F3 F3 ::[M:24/8] x24 :: x24 | x24 ::[M:6/8] x6 | x6 | x6 | x6 | x6 | %70
 x6 | x6 | x6 :: x6 :: x6 ::[M:8/8] x8 ::[M:9/8] x9 ::[M:8/8] x8 ::[M:2/8] x2 :: %79
[M:8/8][K:bass] x8 ::[K:treble] eBeB eBeB ::[M:24/8] F3 x3 F3 x3 F3 x3 F3 x3 ::[M:8/8] FBFB FBFB | %83
[M:8/8] FBFB FBFB |[M:24/8] F3 x3 F3 x3 F3 x3 F3 x3 ::[M:8/8] FBFB FBFB ::[M:24/8] x24 :: %87
[M:8/8] x8 ::[M:24/8] x24 ::[M:8/8] x8 ::[M:40/8] x40 ::[M:24/8] x24 ::[M:40/8] x40 ::[M:8/8] x8 :: %94
[M:24/8] [Ff]3 [Ff]3 [Ff]3 [Ff]3 [Ff]3 [Ff]3 [Ff]3 [Ff]3 | [Ff]6 [Ff]6 [Ff]6 [Ff]6 :: %96
[M:24/8] x24 ::[M:8/8] x8 | x8 | x8 |[M:24/8] x24 ::[M:6/8] x6 ::[M:24/8] x24 |[M:6/8] x6 | x6 | %105
 x6 | x6 ::[M:6/8] x6 ::[M:8/8] x8 |[M:6/8] x6 ::[M:4/4] x8 | x8 ::[M:5/4] x10 |[M:6/8] x6 :: %114
[M:7/8] x7 |[M:5/8] x5 |[M:6/8] x6 ::[M:4/4] x8 | x8 ::[M:5/4] x10 |[M:6/8] x6 ::[M:5/4] x10 :: %122
[M:6/8] x6 :| %123

